icons/svgs/info-solid.svg

<svg width="24" height="24" viewBox="0 0 24 24" fill="none" xmlns="http://www.w3.org/2000/svg">
<path d="M10.125 5.125C10.125 4.46094 10.4766 3.875 11.0625 3.52344C11.6094 3.17188 12.3516 3.17188 12.9375 3.52344C13.4844 3.875 13.875 4.46094 13.875 5.125C13.875 5.82812 13.4844 6.41406 12.9375 6.76562C12.3516 7.11719 11.6094 7.11719 11.0625 6.76562C10.4766 6.41406 10.125 5.82812 10.125 5.125ZM8.25 10.75C8.25 10.0859 8.79688 9.5 9.5 9.5H12C12.6641 9.5 13.25 10.0859 13.25 10.75V19.5H14.5C15.1641 19.5 15.75 20.0859 15.75 20.75C15.75 21.4531 15.1641 22 14.5 22H9.5C8.79688 22 8.25 21.4531 8.25 20.75C8.25 20.0859 8.79688 19.5 9.5 19.5H10.75V12H9.5C8.79688 12 8.25 11.4531 8.25 10.75Z" fill="black"/>
</svg>

<svg xmlns="http://www.w3.org/2000/svg" width="24" height="24" fill="currentColor" class="icon-info-solid" viewBox="0 0 24 24">
  <mask id="a" width="8" height="19" x="8" y="3" maskUnits="userSpaceOnUse" style="mask-type:alpha">
    <path d="M10.125 5.125c0-.664.352-1.25.938-1.602.546-.351 1.289-.351 1.874 0 .547.352.938.938.938 1.602 0 .703-.39 1.29-.937 1.64-.586.352-1.329.352-1.876 0a1.87 1.87 0 0 1-.937-1.64M8.25 10.75c0-.664.547-1.25 1.25-1.25H12c.664 0 1.25.586 1.25 1.25v8.75h1.25c.664 0 1.25.586 1.25 1.25 0 .703-.586 1.25-1.25 1.25h-5c-.703 0-1.25-.547-1.25-1.25 0-.664.547-1.25 1.25-1.25h1.25V12H9.5c-.703 0-1.25-.547-1.25-1.25"/>
  </mask>
  <g mask="url(#a)">
    <path d="M0 0h24v24H0z"/>
  </g>
</svg>
